svgs/light/window-frame.svg

<svg xmlns="http://www.w3.org/2000/svg" viewBox="0 0 512 512"><!--! Font Awesome Pro 6.6.0 by @fontawesome - https://fontawesome.com License - https://fontawesome.com/license (Commercial License) Copyright 2024 Fonticons, Inc. --><path d="M240 288l0 192L64 480l0-192 176 0zm32 192l0-192 176 0 0 192-176 0zm208 0l0-416c0-35.3-28.7-64-64-64L96 0C60.7 0 32 28.7 32 64l0 416-16 0c-8.8 0-16 7.2-16 16s7.2 16 16 16l16 0 32 0 384 0 32 0 16 0c8.8 0 16-7.2 16-16s-7.2-16-16-16l-16 0zM448 256l-176 0 0-224 144 0c17.7 0 32 14.3 32 32l0 192zM96 32l144 0 0 224L64 256 64 64c0-17.7 14.3-32 32-32z"/></svg>

<svg xmlns="http://www.w3.org/2000/svg" viewBox="0 0 512 512"><!--! Font Awesome Pro 6.4.0 by @fontawesome - https://fontawesome.com License - https://fontawesome.com/license (Commercial License) Copyright 2023 Fonticons, Inc. --><path d="M240 288V480H64V288H240zm32 192V288H448V480H272zm208 0V64c0-35.3-28.7-64-64-64H96C60.7 0 32 28.7 32 64V480H16c-8.8 0-16 7.2-16 16s7.2 16 16 16H32 64 448h32 16c8.8 0 16-7.2 16-16s-7.2-16-16-16H480zM448 256H272V32H416c17.7 0 32 14.3 32 32V256zM96 32H240V256H64V64c0-17.7 14.3-32 32-32z"/></svg>
